X:95
T: WILLST DU MICH DENN NICHT MEHR LIEBEN
N: E0699
O: Europa, Mitteleuropa, Deutschland, Brandenburg
R: Liebes - Lied, Leid, Klage
M: 3/4
L: 1/8
K: F
FA | AGB2EG | FAc2
FA | AGd2cE | F2z2
FA | cAf2dB | Acc2
FA | AGd2cE | F2z2

@@@ Tune index: 4408
